X:5700
T:Gan Ainm
R:reel
S:
H:
N:
D:Milltown Session
Z:Adrian Scahill
M:4/4
L:1/8
K:C
CEEC A,CG,A,|CEGc AGEG|cAGc AFDC|B,CDE FDB,D|\
CEEC A,CG,A,|CEGc AGEG|cAGc AFDC|B,CDB, C4:||
GccG AcGc|ecgc acgc|f2dc BGAB|cdef g2EF|\
GccG AcGc|ecgc acgc|f2dc BGAB|(3cdc Bd c4:||
% These tunes have been compiled and transcribed by Adrian Scahill. 
% They are free for personal use only, and may not be published 
% or reproduced for profit. 
% 
% This file may not be included on a web page for download without
% permission from me. 
%
% I have not generally included ornamentation or variations - and each
% tune is notated as closely as possible to the player's performance. 
% Following from this I have not tried to 'correct' what may be variations,
% wayward versions, instrument-specific quirks etc. 
% 
% I have listed the sources that I know or remember, and have included
% a discography where relevant. 
%
% Transferred to ABC March 1999
%
% Questions, Info: Email - adrian@continuo.freeserve.co.uk
% 
%  
% Output from ABC2Win  Version 2.1 h on 2/28/99


